src/assets/top_menu_api.svg

<svg width="88" height="88" viewBox="0 0 88 88" fill="none" xmlns="http://www.w3.org/2000/svg">
<path d="M7.72277 0C6.97624 0 6.25545 0.285551 5.71485 0.830695L0.823763 5.76294C0.283169 6.30809 0 7.00899 0 7.78776V30.2165C0 31.151 0.772277 31.9298 1.69901 31.9298H24.301C25.2277 31.9298 26 31.151 26 30.2165V1.71331C26 0.778776 25.2277 0 24.301 0H7.72277ZM7.92871 1.14221H24.3267C24.6356 1.14221 24.8931 1.4018 24.8931 1.71331V30.2165C24.8931 30.528 24.6356 30.7876 24.3267 30.7876H1.69901C1.3901 30.7876 1.13267 30.528 1.13267 30.2165V7.99544H6.2297C7.15644 7.99544 7.92871 7.21666 7.92871 6.28213V1.14221ZM6.79604 1.42776V6.28213C6.79604 6.59364 6.53861 6.85323 6.2297 6.85323H1.41584C1.46733 6.74939 1.54455 6.67152 1.62178 6.59364L6.51287 1.66139C6.61584 1.55755 6.69307 1.50563 6.79604 1.42776ZM15.1881 7.99544C14.9822 8.0214 14.7762 8.20311 14.7248 8.41078L11.3267 22.0913C11.2495 22.4028 11.4297 22.7143 11.7386 22.7922C11.7901 22.7922 11.8416 22.8181 11.8673 22.8181C12.1248 22.8181 12.3564 22.6364 12.4079 22.3768L15.8059 8.69633C15.8832 8.38482 15.703 8.07331 15.3941 7.99544C15.3426 7.99544 15.2653 7.96948 15.1881 7.99544ZM9.62772 11.3961C9.47327 11.3961 9.34455 11.448 9.21584 11.5518L5.81782 15.0044C5.58614 15.2381 5.58614 15.5755 5.81782 15.8092L9.21584 19.2358C9.31881 19.3396 9.47327 19.3915 9.62772 19.3915C9.78218 19.3915 9.91089 19.3396 10.0396 19.2358C10.2713 19.0021 10.2713 18.6647 10.0396 18.431L7.02772 15.3938L10.0139 12.3825C10.2455 12.1489 10.2455 11.8114 10.0139 11.5778C9.91089 11.474 9.75644 11.3961 9.62772 11.3961ZM17.5307 11.3961C17.3762 11.3961 17.2475 11.448 17.1188 11.5518C16.8871 11.7855 16.8871 12.123 17.1188 12.3566L20.1049 15.3679L17.1188 18.4051C16.8871 18.6387 16.8871 18.9762 17.1188 19.2098C17.2218 19.3137 17.3762 19.3656 17.5307 19.3656C17.6851 19.3656 17.8139 19.3137 17.9426 19.2098L21.3406 15.7832C21.5723 15.5496 21.5723 15.2121 21.3406 14.9785L17.9168 11.5778C17.8139 11.474 17.6851 11.3961 17.5307 11.3961ZM4.81386 26.8418C4.65941 26.8418 4.53069 26.8937 4.40198 27.0235C4.1703 27.2572 4.1703 27.6206 4.40198 27.8283C4.63366 28.0619 4.99406 28.0619 5.2 27.8283C5.43168 27.5946 5.43168 27.2312 5.2 27.0235C5.12277 26.8937 4.96832 26.8418 4.81386 26.8418ZM7.13069 26.8418C6.97624 26.8418 6.84752 26.8937 6.71881 27.0235C6.48713 27.2572 6.48713 27.6206 6.71881 27.8283C6.9505 28.0619 7.31089 28.0619 7.51683 27.8283C7.74851 27.5946 7.74851 27.2312 7.51683 27.0235C7.4396 26.8937 7.28515 26.8418 7.13069 26.8418ZM9.44752 26.8418C9.29307 26.8418 9.16436 26.8937 9.03564 27.0235C8.80396 27.2572 8.80396 27.6206 9.03564 27.8283C9.26733 28.0619 9.62772 28.0619 9.83366 27.8283C10.0653 27.5946 10.0653 27.2312 9.83366 27.0235C9.75643 26.8937 9.60198 26.8418 9.44752 26.8418ZM11.7644 26.8418C11.6099 26.8418 11.4812 26.8937 11.3525 27.0235C11.1208 27.2572 11.1208 27.6206 11.3525 27.8283C11.5842 28.0619 11.9446 28.0619 12.1505 27.8283C12.3822 27.5946 12.3822 27.2312 12.1505 27.0235C12.0733 26.8937 11.9188 26.8418 11.7644 26.8418ZM14.0812 26.8418C13.9267 26.8418 13.798 26.8937 13.6693 27.0235C13.4376 27.2572 13.4376 27.6206 13.6693 27.8283C13.901 28.0619 14.2614 28.0619 14.4673 27.8283C14.699 27.5946 14.699 27.2312 14.4673 27.0235C14.3901 26.8937 14.2356 26.8418 14.0812 26.8418ZM16.398 26.8418C16.2436 26.8418 16.1149 26.8937 15.9861 27.0235C15.7545 27.2572 15.7545 27.6206 15.9861 27.8283C16.2178 28.0619 16.5782 28.0619 16.7842 27.8283C17.0158 27.5946 17.0158 27.2312 16.7842 27.0235C16.7069 26.8937 16.5525 26.8418 16.398 26.8418ZM18.7149 26.8418C18.5604 26.8418 18.4317 26.8937 18.303 27.0235C18.0713 27.2572 18.0713 27.6206 18.303 27.8283C18.5347 28.0619 18.895 28.0619 19.101 27.8283C19.3327 27.5946 19.3327 27.2312 19.101 27.0235C19.0238 26.8937 18.8693 26.8418 18.7149 26.8418ZM21.0317 26.8418C20.8772 26.8418 20.7485 26.8937 20.6198 27.0235C20.3881 27.2572 20.3881 27.6206 20.6198 27.8283C20.8515 28.0619 21.2119 28.0619 21.4178 27.8283C21.6495 27.5946 21.6495 27.2312 21.4178 27.0235C21.3148 26.8937 21.1861 26.8418 21.0317 26.8418Z" transform="translate(16 12) scale(2)" fill="url(#paint0_linear)"/>
<defs>
<linearGradient id="paint0_linear" x2="1" gradientUnits="userSpaceOnUse" gradientTransform="translate(0.00718218 2.85656) scale(26.0011 26.2199)">
<stop stop-color="#316BAE"/>
<stop offset="1" stop-color="#C82F3F"/>
</linearGradient>
</defs>
</svg>

<svg width="88" height="88" fill="none" xmlns="http://www.w3.org/2000/svg"><path d="M7.723 0c-.747 0-1.468.286-2.008.83L.824 5.764A2.816 2.816 0 0 0 0 7.788v22.428c0 .935.772 1.714 1.699 1.714h22.602c.927 0 1.699-.779 1.699-1.713V1.712C26 .78 25.228 0 24.301 0H7.723zm.206 1.142h16.398c.309 0 .566.26.566.571v28.503a.574.574 0 0 1-.566.572H1.699a.574.574 0 0 1-.566-.572V7.997H6.23c.926 0 1.699-.78 1.699-1.714v-5.14zm-1.133.286v4.854a.574.574 0 0 1-.566.571H1.416c.051-.104.129-.181.206-.26l4.89-4.932c.104-.103.181-.155.284-.233zm8.392 6.567a.586.586 0 0 0-.463.416l-3.398 13.68a.573.573 0 0 0 .412.701c.051 0 .103.026.128.026.258 0 .49-.182.54-.441l3.399-13.68a.573.573 0 0 0-.412-.702c-.051 0-.129-.026-.206 0zm-5.56 3.401a.628.628 0 0 0-.412.156l-3.398 3.452a.553.553 0 0 0 0 .805l3.398 3.427a.582.582 0 0 0 .412.155.628.628 0 0 0 .412-.155.553.553 0 0 0 0-.805l-3.012-3.037 2.986-3.011a.553.553 0 0 0 0-.805.598.598 0 0 0-.386-.182zm7.903 0a.628.628 0 0 0-.412.156.553.553 0 0 0 0 .805l2.986 3.01-2.986 3.038a.553.553 0 0 0 0 .805.582.582 0 0 0 .412.156.628.628 0 0 0 .412-.156l3.398-3.427a.553.553 0 0 0 0-.804l-3.424-3.401a.546.546 0 0 0-.386-.182zM4.814 26.842a.546.546 0 0 0-.412.181c-.232.234-.232.598 0 .805.232.234.592.234.798 0 .232-.233.232-.597 0-.805-.077-.13-.232-.181-.386-.181zm2.317 0a.546.546 0 0 0-.412.181c-.232.234-.232.598 0 .805.231.234.592.234.798 0 .232-.233.232-.597 0-.805-.077-.13-.232-.181-.386-.181zm2.317 0a.546.546 0 0 0-.412.181c-.232.234-.232.598 0 .805.231.234.592.234.798 0 .231-.233.231-.597 0-.805-.078-.13-.232-.181-.386-.181zm2.316 0a.546.546 0 0 0-.412.181c-.231.234-.231.598 0 .805.232.234.593.234.798 0 .232-.233.232-.597 0-.805-.077-.13-.231-.181-.386-.181zm2.317 0a.546.546 0 0 0-.412.181c-.231.234-.231.598 0 .805.232.234.592.234.798 0 .232-.233.232-.597 0-.805-.077-.13-.231-.181-.386-.181zm2.317 0a.546.546 0 0 0-.412.181c-.232.234-.232.598 0 .805.232.234.592.234.798 0 .232-.233.232-.597 0-.805-.077-.13-.232-.181-.386-.181zm2.317 0a.546.546 0 0 0-.412.181c-.232.234-.232.598 0 .805.232.234.592.234.798 0 .232-.233.232-.597 0-.805-.077-.13-.232-.181-.386-.181zm2.317 0a.546.546 0 0 0-.412.181c-.232.234-.232.598 0 .805.232.234.592.234.798 0 .232-.233.232-.597 0-.805a.462.462 0 0 0-.386-.181z" transform="matrix(2 0 0 2 16 12)" fill="url(#paint0_linear)"/><defs><linearGradient id="paint0_linear" x2="1" gradientUnits="userSpaceOnUse" gradientTransform="matrix(26.0011 0 0 26.2199 .007 2.857)"><stop stop-color="#316BAE"/><stop offset="1" stop-color="#C82F3F"/></linearGradient></defs></svg>
